brandFactory_export/3.Masa/Descuento_3Masa.svg

<?xml version="1.0" encoding="UTF-8"?>
<svg width="24px" height="24px" viewBox="0 0 24 24" version="1.1" xmlns="http://www.w3.org/2000/svg" xmlns:xlink="http://www.w3.org/1999/xlink">
    <title>3.Masa/Descuento_3Masa</title>
    <g id="Symbols" stroke="none" stroke-width="1" fill="none" fill-rule="evenodd">
        <g id="3.Masa/Descuento_3Masa" fill="#5CB615" fill-rule="nonzero">
            <path d="M23.6235294,1.60672269 C23.6168067,0.722689076 22.9008403,0.00336134454 22.0134454,0 L12,0 C11.5159664,0.11092437 11.0722689,0.356302521 10.7260504,0.715966387 L0.722689076,10.7092437 C-0.0806722689,11.3344538 -0.235294118,12.4840336 0.373109244,13.297479 L10.3193277,23.2201681 C10.5815126,23.4823529 10.9411765,23.6268908 11.3142857,23.6168067 C11.4218487,23.6268908 11.5327731,23.6268908 11.6436975,23.6168067 C12.1411765,23.4957983 12.5882353,23.2168067 12.9176471,22.8235294 L22.9109244,12.9008403 C23.2806723,12.5445378 23.5260504,12.0840336 23.6168067,11.5798319 L23.6168067,1.61008403 L23.6235294,1.61008403 L23.6235294,1.60672269 Z M15.7378151,5.57647059 C15.7747899,5.07226891 16.010084,4.59831933 16.3932773,4.26554622 C16.7294118,3.87563025 17.210084,3.64369748 17.7243697,3.62016807 C18.2487395,3.65378151 18.7394958,3.89243697 19.0857143,4.28571429 C19.4823529,4.63193277 19.7243697,5.11932773 19.7613445,5.64369748 C19.7310924,6.14789916 19.4991597,6.61512605 19.1159664,6.94453782 C18.7764706,7.33445378 18.292437,7.5697479 17.7747899,7.6 C17.2504202,7.5697479 16.7630252,7.33445378 16.4134454,6.94453782 C16.0201681,6.60504202 15.7781513,6.1210084 15.7378151,5.60336134 L15.7378151,5.57647059 L15.7378151,5.57647059 Z" id="Descuento_3Masa"></path>
        </g>
    </g>
</svg>

<svg width="24" height="24" viewBox="0 0 24 24" xmlns="http://www.w3.org/2000/svg"><path d="M23.624 1.607A1.618 1.618 0 0022.014 0H12c-.484.11-.928.356-1.274.716L.723 10.709a1.863 1.863 0 00-.35 2.588l9.946 9.923c.263.262.622.407.995.397.108.01.219.01.33 0 .497-.121.944-.4 1.274-.793L22.91 12.9c.37-.356.615-.817.706-1.321V1.61h.007v-.003zm-7.886 3.97c.037-.505.272-.979.655-1.311.336-.39.817-.622 1.331-.646a1.982 1.982 0 011.362.666c.396.346.638.833.675 1.358-.03.504-.262.971-.645 1.3-.34.39-.824.626-1.341.656a1.978 1.978 0 01-1.362-.655 1.976 1.976 0 01-.675-1.342v-.027z" fill="#5CB615" fill-rule="nonzero"/></svg>
